X: 20559
T: John Murray Of Lochee
R: reel
M: 4/4
K: Gmajor
|:GE|DGGF G2GE|DGGF GBAG|EAAG A2AB|cBAG FAGE|
DGGF G2GE|DGGF GBAG|c2BA BdBG|FAdc BG:|
|:GA|B2BA BGGA|BGdG BGGB|c2cB cBAG|FAdB cBAc|
B2BA BGGA|BGdG BGGB|c2BA BdBG|FAdc BG:|

